X: 92
T:Trip To Fowey. WM.092
M:C
L:1/8
Q:200
C:*
S:WM.Mittell,1799
S:Johnny Adams <j.adams:salford.ac.uk> tradtunes 2003-3-24
R:Reel
O:England
A:Kent
N:
D:
H:
Z:vmp.Chris Partington
W:1st couple set to the 2nd lady & hands around.Same to the 3rd
W:gent.cross over 1st couple and turn right and left at top
K:D
fgaf d/d/d df|edef dBB2|fgaf d/d/d df|edefd2d2:|
|:eAcA eAfe|fAdA fgab|afef d/d/d df|edef d2d2:|]
